X: 881
T: Shaking Down the Acorns
B: jims roots
M:2/4
L:1/16
Q: 1/4=100
K:Amix
V:1 
|:"A"AAAG EDEG | AAAG EDEG | AAAB (3cdc AA | "G"dcBA GABG :|
  "A"AAAG EDEG | AAAG EDEG | AAAB (3cdc AA | "G"dcBA GABd||
"A"e2ef e2ef | "G"edBA GAef | g2ga Jg2 eA | "E"dcBA GABd |
"A"e2ee e2ef | "G"edBA GAef | gabe Jg2 eA | "E"dcBA GABd |
"A"e2ef e2ef | "G"edBA GAeg | "D"Jf2 d2 Jg2 e2 | "G"dcBA GABd |
"A"e2ee e2ef | "G"edBA GAef | gabe Jg2 eA | "E"dcBA GABG:|"ending A"G8|]
% abcbook-tune_id 6298c28714802c78dc696952


% abcbook-boost 0
% abcbook-tablature 
% abcbook-transpose 
% abcbook-lastupdated 1654178440282
% abcbook-soundfonts 
% abcbook-repeats 1


